svg/food/chopsticks_line.svg

<?xml version="1.0" encoding="UTF-8"?>
<svg width="24px" height="24px" viewBox="0 0 24 24" version="1.1" xmlns="http://www.w3.org/2000/svg" xmlns:xlink="http://www.w3.org/1999/xlink">
    <title>chopsticks_line</title>
    <g id="Icon" stroke="none" stroke-width="1" fill="none" fill-rule="evenodd">
        <g id="Food" transform="translate(-182.000000, -250.000000)" fill-rule="nonzero">
            <g id="chopsticks_line" transform="translate(182.000000, 250.000000)">
                <path d="M24,0 L24,24 L0,24 L0,0 L24,0 Z M12.5935,23.2578 L12.5819,23.2595 L12.5109,23.295 L12.4919,23.2987 L12.4767,23.295 L12.4057,23.2595 C12.3958,23.2564 12.387,23.259 12.3821,23.2649 L12.378,23.2758 L12.3609,23.7031 L12.3659,23.7235 L12.3769,23.7357 L12.4805,23.8097 L12.4953,23.8136 L12.5071,23.8097 L12.6107,23.7357 L12.6233,23.7197 L12.6267,23.7031 L12.6096,23.2758 C12.6076,23.2657 12.601,23.2593 12.5935,23.2578 Z M12.8584,23.1453 L12.8445,23.1473 L12.6598,23.2397 L12.6499,23.2499 L12.6472,23.2611 L12.6651,23.6906 L12.6699,23.7034 L12.6784,23.7105 L12.8793,23.8032 C12.8914,23.8069 12.9022,23.803 12.9078,23.7952 L12.9118,23.7812 L12.8777,23.1665 C12.8753,23.1546 12.8674,23.147 12.8584,23.1453 Z M12.143,23.1473 C12.1332,23.1424 12.1222,23.1453 12.1156,23.1526 L12.1099,23.1665 L12.0758,23.7812 C12.0751,23.7927 12.0828,23.8019 12.0926,23.8046 L12.1083,23.8032 L12.3092,23.7105 L12.3186,23.7024 L12.3225,23.6906 L12.3404,23.2611 L12.3372,23.2485 L12.3278,23.2397 L12.143,23.1473 Z" id="MingCute"></path>
                <path d="M18.5556,6.70524 C18.934,6.30291 19.5668,6.28347 19.9692,6.66182 C20.3405538,7.01106615 20.3856497,7.57718142 20.092847,7.97865297 L20.0126,8.07537 L8.04847,20.7978 C7.67013,21.2001 7.03726,21.2196 6.63493,20.8412 C6.26354846,20.492 6.21841639,19.9258627 6.51125304,19.5244111 L6.59151,19.4277 L18.5556,6.70524 Z M12.3539,3.3903 C12.63,2.91201 13.2416,2.74814 13.7199,3.02428 C14.1640357,3.28069571 14.3370816,3.82635148 14.1383953,4.28593981 L14.0859,4.3903 L5.58592,19.1127 C5.30978,19.591 4.69819,19.7549 4.21989,19.4788 C3.77576357,19.2223286 3.60274418,18.6766602 3.80138622,18.2170624 L3.85387,18.1127 L12.3539,3.3903 Z" id="形状" fill="#09244B"></path>
            </g>
        </g>
    </g>
</svg>

<svg xmlns="http://www.w3.org/2000/svg" width="24" height="24"><g fill="none" fill-rule="nonzero"><path d="M24 0v24H0V0h24ZM12.594 23.258l-.012.002-.071.035-.02.004-.014-.004-.071-.036c-.01-.003-.019 0-.024.006l-.004.01-.017.428.005.02.01.013.104.074.015.004.012-.004.104-.074.012-.016.004-.017-.017-.427c-.002-.01-.009-.017-.016-.018Zm.264-.113-.014.002-.184.093-.01.01-.003.011.018.43.005.012.008.008.201.092c.012.004.023 0 .029-.008l.004-.014-.034-.614c-.003-.012-.01-.02-.02-.022Zm-.715.002a.023.023 0 0 0-.027.006l-.006.014-.034.614c0 .012.007.02.017.024l.015-.002.201-.093.01-.008.003-.011.018-.43-.003-.012-.01-.01-.184-.092Z"/><path fill="#09244B" d="M18.556 6.705a1 1 0 0 1 1.537 1.274l-.08.096L8.048 20.798a1 1 0 0 1-1.537-1.274l.08-.096L18.557 6.705ZM12.354 3.39a1 1 0 0 1 1.784.896l-.052.104-8.5 14.723a1 1 0 0 1-1.785-.896l.053-.104 8.5-14.723Z"/></g></svg>
